X:35
T:Schottis fr{\aa}n \"Osterg\"otland
R:schottis
A:\"Osterg\"otland
Z:id:hn-schottis-35
M:C|
L:1/8
K:D
A2fe dedB | ABAF D2D2 | ABAG E2E2 | ABAF D2D2 |
A2fe dedB | ABAF D2D2 | ABAF AGEC |1 E2D2 D4 :|2 E2D2 D3A ||
|: BAGB dBGB | AFAd f2f2 | eAce gece | dAde f2d2 |
BAGB dBGB | AFAd f2f2 | eAce gece | d2dd d4 :|
<end>
<start>
